X: 1
T: Cronin's
T: The Belles Of Tipperary
M: 4/4
L: 1/8
R: reel
K: Fmaj
~F3G Ac~c2|fgaf gfdc|dfcf ~d3=B|cAFG AG~G2|
~F3G Ac~c2|fgaf gfdc|dfcf ~d3f|1 cAGc AFFE:|2 cAGc AF~F2||
|:~c3d cA~A2|BAGB AFFc|dfcf ~d3=B|cAFG AG~G2|
~c3d cA~A2|BAGB AFFc|dfcf ~d3f|1 cAGc AF~F2:|2 cAGc AFFE||
